packages/astro-components-stencil/src/icons/home.svg

<svg width="24" height="24" viewBox="0 0 24 24" fill="none" xmlns="http://www.w3.org/2000/svg">
<path d="M9.99998 19V14H14V19C14 19.55 14.45 20 15 20H18C18.55 20 19 19.55 19 19V12H20.7C21.16 12 21.38 11.43 21.03 11.13L12.67 3.6C12.29 3.26 11.71 3.26 11.33 3.6L2.96998 11.13C2.62998 11.43 2.83998 12 3.29998 12H4.99998V19C4.99998 19.55 5.44998 20 5.99998 20H8.99998C9.54998 20 9.99998 19.55 9.99998 19Z" fill="black"/>
</svg>

<svg xmlns="http://www.w3.org/2000/svg" viewBox="0 0 24 24"><g xmlns="http://www.w3.org/2000/svg" id="home" fill-rule="nonzero">
            <path d="M10 19v-5h4v5c0 .55.45 1 1 1h3c.55 0 1-.45 1-1v-7h1.7c.46 0 .68-.57.33-.87L12.67 3.6c-.38-.34-.96-.34-1.34 0l-8.36 7.53c-.34.3-.13.87.33.87H5v7c0 .55.45 1 1 1h3c.55 0 1-.45 1-1z"/>
        </g></svg>
